X: 14175
T: Frost And Snow
R: hornpipe
M: 4/4
K: Adorian
|:EF|GFGA GEDE|~G3A G2ED|EAAB cBAG|ABcd e2E2|
ABcd eg~g2|dBGB (3ded cd|edcB AGED|EAAG A2:|
|:(3EFG|AGAB ~c3d|ef (3gfe a2ef|~g3e dcBd|cBAc BGED|
ABcd ef (3gfe|dBGB (3ded cd|edcA AGED|EAAG A2:|

